X: 68
T: Hunt the Squirrel
M:4/4
L:1/8
Q:160
S:Playford
O:Manuscript
A:English
K:G
(3DEF|G>BA>F G2 D2|G>Bd>e d2 B2|G>Bd>e d2 B>A|G>BA>F G3|(3DEF|G>BA>F G2
D2| G>Bd>e d2 B2|G>Bd>e d2 B>A|G>BA>F G3:|e>f g2 e>f g2|e>fg>A g2 e2| d>ed>c d2 B>A| G>BA>F G4:|

